X:1
T:Flintshire, 11.8.11.8 D
T:Flintshire, 11.8.11.8 D
T:Philip A. Gifford
C:Philip A. Gifford
%%score ( 1 2 ) ( 3 4 )
L:1/8
Q:1/4=130
M:6/4
K:G
V:1 treble 
V:2 treble 
V:3 bass 
V:4 bass 
V:1
 D2 | [DB]2 [CF]2 [B,G]2 [B,A]2 [CG]2 [CE]2 | [B,D]2 B,2 [^A,E]2 [B,D]4 D2 | %3
 [CE]2 [DE]2 [CE]2 [^CA]2 [CE]2 [CG]2 | [DF]6- [DF]4 [CD]2 | %5
 [B,B]2 [CF]2 [DG]2 [B,A]2 [CG]2 [CE]2 | [B,D]2 B,2 [^A,E]2 [B,D]4 D2 | %7
 [CE]2 [EG]2 [EA]2 [DB]2 G2 [FA]2 | [DG]6- [DG]4 (FG) | [DA]2 [FA]2 [GB]2 [Ac]2 [Ac]2 ([GB][FA]) | %10
 [GB]2 [DB]2 [Dc]2 [Dd]4 [Gd]2 | [Ge]2 [Gd]2 [GB]2 [DG]2 [DF]2 [DG]2 | [DA]6- [DA]4 (Bc) | %13
 [Gd]3 [Ge] [Gd]2 [Gd]2 [DB]2 [DG]2 | [CG]2 [CE]2 [EG]2 D4 [B,D]2 | %15
 [CE]2 [EG]2 [CA]2 [B,B]2 [DG]2 [DA]2 | [DG]6- [DG]4 |] %17
V:2
 D2 | x12 | x2 B,2 x4 D2 x2 | x12 | x12 | x12 | x2 B,2 x4 D2 x2 | x8 G2 x2 | x10 D2 | x12 | x12 | %11
 x12 | x10 D2 | x12 | x6 D4 x2 | x12 | x10 |] %17
V:3
 D,2 | [G,,B,]2 [G,,A,]2 [G,,G,]2 [G,,D,]2 [G,,E,]2 [G,,F,]2 | %2
 [G,,G,]2 [G,,D,]2 [G,,^C,]2 [G,,D,]4 [B,,G,]2 | %3
 [C,G,]2 [B,,^G,]2 [A,,A,]2 [A,,=G,]2 [A,,G,]2 [A,,A,]2 | [D,A,]6- [D,A,]4 [F,A,]2 | %5
 G,2 [G,,A,]2 [G,,B,]2 [G,,D,]2 [G,,E,]2 [G,,F,]2 | [G,,G,]2 [G,,D,]2 [G,,^C,]2 [G,,D,]4 [B,,G,]2 | %7
 [C,G,]2 [C,G,]2 [C,G,]2 [D,G,]2 [D,B,]2 [D,C]2 | [G,B,]6- [G,B,]4 (A,G,) | %9
 [D,F,]2 [D,A,]2 [D,D]2 [D,D]2 [D,D]2 [D,D]2 | [G,D]2 G,2 [G,A,]2 [G,B,]4 [B,D]2 | %11
 C2 [B,D]2 [G,D]2 B,2 [A,C]2 [G,B,]2 | [D,F,]6- [D,F,]4 (G,A,) | %13
 [G,B,]3 [G,C] [G,B,]2 [G,,B,]2 [G,,G,]2 [B,,=F,]2 | [C,E,]2 [C,G,]2 [C,C]2 [G,B,]4 [G,,G,]2 | %15
 [C,G,]2 [C,C]2 [C,E]2 [D,D]2 [D,B,D]2 [D,C]2 | [G,,D,B,]6- [G,,D,B,]4 |] %17
V:4
 D,2 | x12 | x12 | x12 | x12 | G,2 x10 | x12 | x12 | x10 D,2 | x12 | x2 G,2 x8 | C2 x2 B,2 x6 | %12
 x10 G,2 | x12 | x12 | x12 | x10 |] %17

